public/svg/usecases/slider/payroll.svg

<svg width="32" height="32" viewBox="0 0 32 32" fill="none" xmlns="http://www.w3.org/2000/svg">
<g clip-path="url(#clip0_225_2605)">
<path d="M8.51748 27.3098C7.72736 27.3098 6.88179 27.409 6.15751 27.0124C5.64462 26.7312 5.23223 26.2788 4.99831 25.7272C4.81638 25.3018 4.78519 24.8602 4.78519 24.4041V23.2198L4.52528 23.4902H8.51748L8.25757 23.2198V27.5802C8.25757 27.9281 8.77739 27.9281 8.77739 27.5802V23.2198C8.77739 23.0738 8.65783 22.9495 8.51748 22.9495H4.52528C4.38493 22.9495 4.26537 23.0738 4.26537 23.2198C4.26537 24.067 4.1666 24.999 4.46983 25.8029C4.93593 27.0413 6.083 27.8452 7.36002 27.8506C7.74642 27.8506 8.13281 27.8506 8.51921 27.8506C8.85363 27.8506 8.85363 27.3098 8.51921 27.3098H8.51748Z" fill="#231F20"/>
<path d="M8.77721 13.8196V6.57335C8.77721 5.95688 8.70617 5.30796 9.05445 4.76719C9.35248 4.30574 9.85843 4.04978 10.3886 4.04257C10.5082 4.04257 10.626 4.04257 10.7456 4.04257H18.5498C19.8632 4.04257 21.1801 4.07321 22.4917 4.04257C22.5125 4.04257 22.5351 4.04257 22.5559 4.04257C22.8903 4.04257 22.8903 3.5018 22.5559 3.5018H10.9622C10.4233 3.5018 9.90695 3.48197 9.40619 3.74695C8.75815 4.08763 8.33537 4.7744 8.26606 5.52066C8.25046 5.69551 8.25739 5.87396 8.25739 6.04881V13.8214C8.25739 14.1693 8.77721 14.1693 8.77721 13.8214V13.8196Z" fill="#231F20"/>
<path d="M20.6988 27.2828H8.51772L8.77763 27.5532V21.8067C8.77763 21.4588 8.25781 21.4588 8.25781 21.8067V27.5532C8.25781 27.6992 8.37737 27.8236 8.51772 27.8236H20.6988C21.0332 27.8236 21.0332 27.2828 20.6988 27.2828Z" fill="#231F20"/>
<path d="M22.2969 6.83831V13.295C22.2969 13.6429 22.8167 13.6429 22.8167 13.295V6.83831C22.8167 6.49042 22.2969 6.49042 22.2969 6.83831Z" fill="#231F20"/>
<path d="M25.5702 6.5643H10.8125L11.0378 6.97168C11.6096 5.93882 11.6165 4.66982 11.0378 3.63876L10.8125 4.04614H22.4634C22.9919 4.04614 23.5862 3.96322 24.0991 4.12725C24.4872 4.25163 24.8286 4.52562 25.0452 4.88432C25.3969 5.46835 25.3103 6.17856 25.3103 6.83649C25.3103 7.18438 25.8301 7.18438 25.8301 6.83649C25.8301 6.23984 25.8977 5.58732 25.6863 5.01952C25.3293 4.06236 24.4699 3.50537 23.4996 3.50357C20.7948 3.49636 18.09 3.50357 15.3869 3.50357H10.8125C10.615 3.50357 10.4885 3.73249 10.5873 3.91095C11.0742 4.77617 11.0672 5.83247 10.5873 6.69949C10.4885 6.87614 10.6133 7.10687 10.8125 7.10687H25.5702C25.9046 7.10687 25.9046 6.56611 25.5702 6.56611V6.5643Z" fill="#231F20"/>
<path d="M13.3446 15.0399H17.3576C17.692 15.0399 17.692 14.4991 17.3576 14.4991H13.3446C13.0101 14.4991 13.0101 15.0399 13.3446 15.0399Z" fill="#231F20"/>
<path d="M13.3446 16.9758H17.3576C17.692 16.9758 17.692 16.4351 17.3576 16.4351H13.3446C13.0101 16.4351 13.0101 16.9758 13.3446 16.9758Z" fill="#231F20"/>
<path d="M15.1182 12.0207C15.2222 12.1576 15.2742 12.3145 15.2742 12.4929C15.2742 12.6533 15.236 12.7939 15.1598 12.9147C15.0836 13.0355 14.9744 13.131 14.8323 13.1995C14.6885 13.268 14.5204 13.3023 14.3246 13.3023H13.3127C13.1862 13.3023 13.084 13.1959 13.084 13.0643V10.5462C13.084 10.4146 13.1862 10.3082 13.3127 10.3082H14.2726C14.4684 10.3082 14.6365 10.3407 14.7769 10.4074C14.9189 10.4741 15.0264 10.5642 15.0991 10.6814C15.1719 10.7985 15.2083 10.9319 15.2083 11.0797C15.2083 11.2546 15.1633 11.4006 15.0749 11.5177C15.0576 11.5412 15.0385 11.5628 15.0177 11.5844C14.9259 11.68 14.9397 11.8386 15.0368 11.9287C15.0662 11.9558 15.0922 11.9864 15.1182 12.0207ZM13.6627 11.3068C13.6627 11.4384 13.7649 11.5448 13.8914 11.5448H14.1912C14.3281 11.5448 14.4338 11.5123 14.5083 11.4474C14.5828 11.3825 14.6192 11.2906 14.6192 11.1716C14.6192 11.0527 14.5828 10.9589 14.5083 10.8923C14.4338 10.8256 14.3281 10.7931 14.1912 10.7931H13.8914C13.7649 10.7931 13.6627 10.8995 13.6627 11.0311V11.3068ZM14.5724 12.7128C14.6504 12.6443 14.6902 12.547 14.6902 12.4208C14.6902 12.2946 14.6486 12.1919 14.5672 12.118C14.484 12.0441 14.3731 12.008 14.2328 12.008H13.8914C13.7649 12.008 13.6627 12.1144 13.6627 12.246V12.5776C13.6627 12.7092 13.7649 12.8156 13.8914 12.8156H14.2449C14.3853 12.8156 14.4944 12.7813 14.5724 12.7128Z" fill="#231F20"/>
<path d="M16.3172 10.548V13.0662C16.3172 13.1977 16.215 13.3041 16.0885 13.3041H15.969C15.8425 13.3041 15.7402 13.1977 15.7402 13.0662V10.548C15.7402 10.4164 15.8425 10.3101 15.969 10.3101H16.0885C16.215 10.3101 16.3172 10.4164 16.3172 10.548Z" fill="#231F20"/>
<path d="M17.6905 12.8282H18.1826C18.3091 12.8282 18.4113 12.9346 18.4113 13.0662C18.4113 13.1977 18.3091 13.3041 18.1826 13.3041H17.1135C16.987 13.3041 16.8848 13.1977 16.8848 13.0662V10.548C16.8848 10.4164 16.987 10.3101 17.1135 10.3101H17.233C17.3595 10.3101 17.4618 10.4164 17.4618 10.548V12.5903C17.4618 12.7219 17.564 12.8282 17.6905 12.8282Z" fill="#231F20"/>
<path d="M19.5831 12.8282H20.0752C20.2016 12.8282 20.3039 12.9346 20.3039 13.0662C20.3039 13.1977 20.2016 13.3041 20.0752 13.3041H19.0061C18.8796 13.3041 18.7773 13.1977 18.7773 13.0662V10.548C18.7773 10.4164 18.8796 10.3101 19.0061 10.3101H19.1256C19.2521 10.3101 19.3543 10.4164 19.3543 10.548V12.5903C19.3543 12.7219 19.4566 12.8282 19.5831 12.8282Z" fill="#231F20"/>
<path d="M11.8542 17.8122C11.842 19.2903 10.9549 20.6657 9.60855 21.1758C8.26223 21.6859 6.67678 21.2587 5.74284 20.0888C4.8089 18.919 4.7136 17.2426 5.45521 15.961C6.19682 14.6794 7.66963 13.998 9.07834 14.2954C10.6828 14.6343 11.842 16.116 11.8542 17.814C11.8576 18.1619 12.3775 18.1619 12.374 17.814C12.3601 16.0818 11.3118 14.5226 9.74544 13.9295C8.20331 13.3455 6.39781 13.8592 5.35644 15.1787C4.31507 16.4982 4.14007 18.4719 5.02029 19.9645C5.88666 21.4317 7.56567 22.1888 9.1875 21.8607C11.0294 21.4876 12.3584 19.75 12.374 17.814C12.3775 17.4661 11.8576 17.4661 11.8542 17.814V17.8122Z" fill="#231F20"/>
<path d="M8.40944 20.6783C8.3124 20.6783 8.21537 20.6783 8.11834 20.6783C8.0317 20.6783 7.99705 20.644 7.99532 20.5539C7.99358 20.4151 7.99532 20.2763 7.99532 20.1393C7.99532 20.1051 7.98492 20.0907 7.952 20.0835C7.48936 19.9627 7.09603 19.7193 6.77548 19.3498C6.75642 19.3282 6.73562 19.3066 6.7183 19.2831C6.66285 19.211 6.66285 19.1623 6.72696 19.0957C6.81013 19.0091 6.89503 18.9262 6.97994 18.8433C7.06657 18.7586 7.15148 18.6739 7.23811 18.5891C7.33515 18.4936 7.3854 18.4918 7.48936 18.5819C7.61758 18.6937 7.7406 18.8109 7.88615 18.901C8.11487 19.0434 8.35746 19.1137 8.6243 19.0578C8.83915 19.0127 8.95871 18.8721 8.96218 18.6558C8.96218 18.5747 8.93445 18.5116 8.87901 18.4557C8.76984 18.3458 8.63469 18.2791 8.49261 18.2268C8.20671 18.1223 7.92254 18.0177 7.6557 17.8645C7.41658 17.7257 7.20173 17.5599 7.05271 17.3147C6.66458 16.6766 6.88637 15.8763 7.54481 15.5464C7.66783 15.4833 7.79778 15.4365 7.93294 15.4094C7.98492 15.3986 7.99705 15.377 7.99532 15.3247C7.99185 15.2076 7.99358 15.0886 7.99532 14.9714C7.99532 14.8687 8.04037 14.8254 8.13913 14.8236C8.3176 14.8236 8.49607 14.8236 8.67454 14.8236C8.78197 14.8236 8.83742 14.8831 8.83742 14.993C8.83742 15.1012 8.83915 15.2094 8.83742 15.3193C8.83742 15.3662 8.84782 15.3824 8.89287 15.3932C9.26887 15.4707 9.59809 15.6474 9.88052 15.916C10.0243 16.0529 10.0261 16.1232 9.89092 16.2711C9.75057 16.4261 9.61022 16.5829 9.46987 16.7379C9.3867 16.828 9.32952 16.8335 9.23595 16.7541C9.12852 16.6622 9.02456 16.5685 8.90153 16.4982C8.70573 16.3846 8.49954 16.3504 8.28122 16.4081C8.23097 16.4225 8.18245 16.4423 8.13913 16.4747C8.00571 16.5757 7.98838 16.7686 8.10274 16.8911C8.17725 16.9704 8.27082 17.0191 8.36958 17.057C8.58791 17.1399 8.80796 17.2156 9.02629 17.2985C9.2706 17.3922 9.50799 17.4968 9.71591 17.6644C9.99315 17.8879 10.1404 18.1782 10.1595 18.5423C10.1959 19.2272 9.80775 19.7211 9.30179 19.9573C9.1701 20.0186 9.03322 20.0654 8.89114 20.0925C8.85128 20.0997 8.83396 20.1141 8.83569 20.1592C8.83915 20.2853 8.83569 20.4097 8.83569 20.5359C8.83569 20.644 8.7993 20.6819 8.69707 20.6819C8.60177 20.6819 8.50647 20.6819 8.41117 20.6819L8.40944 20.6783Z" fill="#3B82F6"/>
<path d="M24.2849 27.4703C24.2849 28.5915 23.4116 29.5 22.3339 29.5C21.2561 29.5 20.3828 28.5915 20.3828 27.4703H24.2849Z" fill="#3B82F6"/>
<path opacity="0.25" d="M22.1584 14.7965C22.6579 14.7965 23.0629 14.3753 23.0629 13.8556C23.0629 13.3359 22.6579 12.9147 22.1584 12.9147C21.6589 12.9147 21.2539 13.3359 21.2539 13.8556C21.2539 14.3753 21.6589 14.7965 22.1584 14.7965Z" fill="#3B82F6"/>
<path d="M27.3577 27.2089H17.3426C17.2022 27.2089 17.0081 27.236 16.8782 27.1675C16.769 27.108 16.6911 26.9944 16.6755 26.8665C16.6495 26.6574 16.8262 26.4717 16.925 26.3059C17.1849 25.8696 17.4119 25.4118 17.6042 24.9395C18.2921 23.2596 18.5312 21.3993 18.3129 19.5896C18.2211 18.8343 18.4723 18.0123 18.8448 17.3688C19.2347 16.6929 19.81 16.1485 20.4892 15.8006C21.8944 15.0796 23.6428 15.3554 24.7916 16.4567C25.3512 16.9939 25.7515 17.6897 25.9369 18.4576C26.1223 19.2254 25.9958 19.9176 26.0045 20.6603C26.0305 22.7062 26.5711 24.734 27.5951 26.4843C27.6869 26.6393 27.7788 26.7871 27.7008 26.9728C27.6384 27.1188 27.505 27.1999 27.356 27.2071C27.0233 27.2216 27.0216 27.7623 27.356 27.7479C27.7649 27.7299 28.1184 27.4649 28.2224 27.0431C28.3436 26.551 27.9971 26.1526 27.7857 25.7489C27.252 24.7268 26.883 23.6183 26.6854 22.4736C26.5347 21.6012 26.4914 20.7071 26.5416 19.8221C26.5919 18.937 26.4758 18.1746 26.1136 17.4049C25.3755 15.8402 23.7814 14.8326 22.1093 14.8597C20.4372 14.8867 18.8951 15.9304 18.1916 17.4932C18.0131 17.8897 17.8849 18.3079 17.8225 18.7424C17.7671 19.1263 17.7809 19.4742 17.8191 19.8563C17.9022 20.7143 17.8866 21.5868 17.7567 22.4376C17.5799 23.593 17.2074 24.7088 16.6495 25.7254C16.445 26.0968 16.1071 26.4627 16.1574 26.9205C16.2007 27.3189 16.4866 27.656 16.8678 27.7335C17.0359 27.7677 17.2178 27.7533 17.3876 27.7533H27.3543C27.6887 27.7533 27.6887 27.2125 27.3543 27.2125L27.3577 27.2089Z" fill="#231F20"/>
<path d="M27.1228 17.2876C27.05 16.5486 26.6636 15.7969 26.1057 15.3355C25.8146 15.0939 25.4888 14.9209 25.1336 14.8127C24.8113 14.7136 24.6745 15.2363 24.995 15.3337C25.2653 15.4166 25.4923 15.5284 25.7314 15.7122C25.7366 15.7158 25.7695 15.7447 25.7384 15.7176C25.7505 15.7284 25.7643 15.7393 25.7765 15.7501C25.799 15.7699 25.8198 15.7879 25.8406 15.8077C25.8874 15.851 25.9342 15.8979 25.9775 15.9447C26.0173 15.988 26.0554 16.0331 26.0918 16.0781C26.1005 16.0907 26.1109 16.1016 26.1196 16.1142C26.1178 16.1106 26.0953 16.0799 26.1126 16.1052C26.1317 16.1322 26.1525 16.1592 26.1698 16.1881C26.2304 16.2782 26.2859 16.3737 26.3361 16.4711C26.3587 16.5143 26.3795 16.5594 26.4003 16.6045C26.4089 16.6243 26.4176 16.6459 26.4262 16.6658C26.4522 16.7234 26.4106 16.6243 26.4384 16.6946C26.4938 16.8388 26.5389 16.9866 26.5718 17.138C26.5822 17.1885 26.5926 17.239 26.6012 17.2912C26.6151 17.3796 26.5961 17.2336 26.6012 17.284C26.6151 17.43 26.7104 17.5544 26.8612 17.5544C26.9911 17.5544 27.1349 17.43 27.1211 17.284L27.1228 17.2876Z" fill="#231F20"/>
<path d="M28.0083 16.9902C27.9182 16.0655 27.4261 15.1264 26.7296 14.5495C26.3692 14.2503 25.962 14.0358 25.5184 13.9006C25.1961 13.8015 25.0592 14.3242 25.3798 14.4216C26.0088 14.6144 26.5684 15.0182 26.9254 15.55C27.0033 15.6653 27.0744 15.7879 27.1385 15.9123C27.168 15.9682 27.1939 16.0258 27.2199 16.0835C27.2321 16.1088 27.2425 16.1358 27.2546 16.161C27.2581 16.1682 27.2771 16.2151 27.265 16.1845C27.2529 16.1538 27.2771 16.2169 27.2771 16.2169C27.3482 16.4008 27.4053 16.59 27.4487 16.7829C27.4625 16.8478 27.4746 16.9127 27.485 16.9794C27.4954 17.0407 27.4937 17.0208 27.485 16.9704C27.485 16.9758 27.485 16.983 27.4868 16.9902C27.5006 17.1362 27.5959 17.2606 27.7467 17.2606C27.8766 17.2606 28.0205 17.1362 28.0066 16.9902H28.0083Z" fill="#231F20"/>
</g>
<defs>
<clipPath id="clip0_225_2605">
<rect width="24" height="26" fill="white" transform="translate(4.25 3.5)"/>
</clipPath>
</defs>
</svg>

<svg xmlns="http://www.w3.org/2000/svg" width="32" height="32" fill="none" viewBox="0 0 32 32"><g clip-path="url(#a)"><path fill="#231f20" d="M8.517 27.31c-.79 0-1.635.099-2.36-.298a2.64 2.64 0 0 1-1.159-1.285c-.182-.425-.213-.867-.213-1.323V23.22l-.26.27h3.992l-.26-.27v4.36c0 .348.52.348.52 0v-4.36a.27.27 0 0 0-.26-.27H4.525a.27.27 0 0 0-.26.27c0 .847-.098 1.779.205 2.583.466 1.238 1.613 2.042 2.89 2.048h1.16c.334 0 .334-.541 0-.541zm.26-13.49V6.573c0-.616-.07-1.265.277-1.806a1.6 1.6 0 0 1 1.335-.724h8.161c1.313 0 2.63.03 3.942 0h.064c.334 0 .334-.541 0-.541H10.962c-.539 0-1.055-.02-1.556.245-.648.34-1.07 1.027-1.14 1.774-.016.175-.009.353-.009.528v7.772c0 .348.52.348.52 0z"/><path fill="#231f20" d="M20.699 27.283H8.518l.26.27v-5.746c0-.348-.52-.348-.52 0v5.746c0 .146.12.27.26.27h12.18c.335 0 .335-.54 0-.54m1.599-20.445v6.457c0 .348.52.348.52 0V6.838c0-.348-.52-.348-.52 0"/><path fill="#231f20" d="M25.57 6.564H10.813l.225.408a3.43 3.43 0 0 0 0-3.333l-.226.407h11.651c.529 0 1.123-.083 1.636.081.388.125.73.399.946.757.352.584.265 1.295.265 1.952 0 .348.52.348.52 0 0-.596.068-1.249-.144-1.816-.357-.958-1.216-1.515-2.186-1.516-2.705-.008-5.41 0-8.113 0h-4.574c-.198 0-.325.228-.226.407a2.86 2.86 0 0 1 0 2.788c-.098.177.026.408.226.408H25.57c.335 0 .335-.54 0-.54zM13.345 15.04h4.013c.334 0 .334-.54 0-.54h-4.013c-.335 0-.335.54 0 .54m0 1.936h4.013c.334 0 .334-.54 0-.54h-4.013c-.335 0-.335.54 0 .54m1.773-4.956a.76.76 0 0 1 .156.473q0 .24-.114.422a.77.77 0 0 1-.328.285 1.2 1.2 0 0 1-.507.102h-1.012a.233.233 0 0 1-.229-.238v-2.518c0-.131.102-.238.229-.238h.96q.293 0 .504.1a.73.73 0 0 1 .322.273.74.74 0 0 1 .11.399.7.7 0 0 1-.191.504c-.092.096-.078.255.019.345q.043.04.081.092m-1.455-.713c0 .131.102.238.228.238h.3a.47.47 0 0 0 .317-.098q.112-.096.111-.275a.36.36 0 0 0-.11-.28q-.112-.099-.318-.099h-.3a.233.233 0 0 0-.228.238zm.91 1.406a.37.37 0 0 0 .117-.292.4.4 0 0 0-.123-.303.48.48 0 0 0-.334-.11h-.342a.233.233 0 0 0-.228.238v.332c0 .131.102.238.228.238h.354a.48.48 0 0 0 .327-.103m1.745-2.166v2.518a.233.233 0 0 1-.229.238h-.119a.233.233 0 0 1-.229-.238v-2.518c0-.132.102-.238.229-.238h.12c.126 0 .228.106.228.238m1.373 2.28h.493c.126 0 .228.107.228.238a.233.233 0 0 1-.228.238h-1.07a.233.233 0 0 1-.228-.238v-2.518c0-.132.102-.238.228-.238h.12c.127 0 .229.106.229.238v2.042c0 .132.102.238.229.238m1.892 0h.492c.127 0 .229.107.229.238a.233.233 0 0 1-.229.238h-1.069a.233.233 0 0 1-.229-.238v-2.518c0-.132.103-.238.23-.238h.119c.126 0 .228.106.228.238v2.042c0 .132.103.238.23.238m-7.73 4.984c-.012 1.478-.9 2.854-2.245 3.364-1.347.51-2.932.083-3.866-1.087s-1.03-2.846-.288-4.128 2.215-1.963 3.623-1.666c1.605.34 2.764 1.821 2.776 3.519.004.348.524.348.52 0-.014-1.732-1.062-3.291-2.629-3.884-1.542-.585-3.347-.07-4.389 1.249-1.04 1.32-1.216 3.293-.336 4.786.867 1.467 2.546 2.224 4.168 1.896 1.841-.373 3.17-2.111 3.186-4.047.003-.348-.516-.348-.52 0z"/><path fill="#3b82f6" d="M8.41 20.678h-.292c-.086 0-.121-.034-.123-.124v-.415c0-.034-.01-.048-.043-.055a2.3 2.3 0 0 1-1.177-.734q-.03-.032-.057-.067c-.055-.072-.055-.12.009-.187q.125-.13.253-.253l.258-.254c.097-.095.147-.097.251-.007.129.112.252.229.397.319.229.142.471.213.738.157.215-.045.335-.186.338-.402a.27.27 0 0 0-.083-.2 1 1 0 0 0-.386-.23 5.3 5.3 0 0 1-.837-.361c-.24-.14-.454-.305-.603-.55-.388-.638-.167-1.439.492-1.769q.185-.095.388-.137c.052-.01.064-.032.062-.084a8 8 0 0 1 0-.354c0-.102.045-.146.144-.147h.536c.107 0 .162.06.162.169q.002.161 0 .326c0 .047.01.063.056.074q.564.118.988.523c.143.137.145.207.01.355l-.421.467c-.083.09-.14.096-.234.016-.107-.092-.211-.186-.334-.256a.8.8 0 0 0-.62-.09.4.4 0 0 0-.143.067.28.28 0 0 0-.036.416c.074.08.168.128.267.166.218.083.438.159.656.242.245.093.482.198.69.365q.415.334.444.878c.036.685-.352 1.18-.858 1.415a1.8 1.8 0 0 1-.41.136c-.04.007-.058.021-.056.066.003.126 0 .25 0 .377 0 .108-.037.146-.139.146h-.286zm15.875 6.792c0 1.122-.873 2.03-1.951 2.03s-1.951-.909-1.951-2.03z"/><path fill="#3b82f6" d="M22.158 14.797c.5 0 .905-.422.905-.941 0-.52-.405-.941-.905-.941s-.904.42-.904.94.405.941.904.941" opacity=".25"/><path fill="#231f20" d="M27.358 27.209H17.343c-.14 0-.335.027-.465-.041a.4.4 0 0 1-.203-.302c-.026-.209.151-.394.25-.56q.39-.656.68-1.367c.687-1.68.926-3.54.708-5.35-.092-.755.16-1.577.532-2.22a4 4 0 0 1 1.644-1.568c1.405-.721 3.154-.446 4.303.656.56.537.96 1.233 1.145 2 .185.768.059 1.46.067 2.203.026 2.046.567 4.074 1.591 5.824.092.155.184.303.106.489a.39.39 0 0 1-.345.234c-.333.015-.334.555 0 .54a.92.92 0 0 0 .866-.704c.122-.492-.225-.89-.436-1.294a11.2 11.2 0 0 1-1.1-3.275 11.7 11.7 0 0 1-.144-2.652c.05-.885-.066-1.647-.428-2.417-.739-1.565-2.333-2.572-4.005-2.545s-3.214 1.07-3.917 2.633a4.7 4.7 0 0 0-.37 1.25 4.4 4.4 0 0 0-.003 1.113c.083.858.068 1.73-.062 2.582a10 10 0 0 1-1.108 3.287c-.204.372-.542.738-.492 1.195.044.399.33.736.71.813.169.035.35.02.52.02h9.967c.335 0 .335-.54 0-.54zm-.235-9.921c-.073-.74-.46-1.491-1.017-1.953a2.8 2.8 0 0 0-.972-.522c-.323-.1-.46.423-.139.52.27.084.497.195.736.38.006.003.038.032.007.005l.038.032.065.058a2.5 2.5 0 0 1 .25.27l.029.036-.007-.009q.03.04.057.083a3 3 0 0 1 .23.417l.026.06c.026.058-.015-.04.012.03a3 3 0 0 1 .163.596c.014.089-.005-.057 0-.007.014.146.11.27.26.27.13 0 .274-.124.26-.27z"/><path fill="#231f20" d="M28.008 16.99c-.09-.924-.582-1.864-1.278-2.44-.36-.3-.768-.514-1.212-.65-.322-.098-.459.424-.138.522a2.9 2.9 0 0 1 1.759 1.49q.043.084.08.172l.036.077c.003.007.022.054.01.023-.012-.03.012.033.012.033q.106.276.172.566a4 4 0 0 1 .038.207c.014.146.109.27.26.27.13 0 .273-.124.26-.27z"/></g><defs><clipPath id="a"><path fill="#fff" d="M4.25 3.5h24v26h-24z"/></clipPath></defs></svg>
